images_sukapura_svg/cmd/sc_superscript.svg

<svg viewBox="0 0 16 16" xmlns="http://www.w3.org/2000/svg" xmlns:xlink="http://www.w3.org/1999/xlink"><linearGradient id="a" gradientUnits="userSpaceOnUse" x1="27" x2="27" y1="-5" y2="-13"><stop offset="0" stop-color="#0040dd"/><stop offset="1" stop-color="#0a84ff"/></linearGradient><path d="m4.1351409 8.4382085-3.94215408-5.5829425h2.13089408l2.9406338 4.3044061 2.9193249-4.3044061h2.1095854l-3.9421543 5.5829425 4.1552433 5.8386495h-2.1308939l-3.1111054-4.560113-3.1537232 4.560113h-2.10958515z" fill="#69696e" transform="scale(.95179053 1.0506513)"/><path d="m15.316804 7.9957628h-5.310515v-.9058794l2.630848-2.8695223q.569565-.6346581.80824-1.0577634.244099-.4285298.244099-.8570596 0-.5641405-.320041-.9113039-.314617-.3471634-.851636-.3471634-.640082 0-.99267.3905588-.352588.3905588-.352588 1.0686123h-1.3181357q0-.7214489.3254657-1.2964383.33089-.58041373.938426-.90045497.61296-.32004124 1.410351-.32004124 1.149979 0 1.811759.58041378.667205.57498933.667205 1.59478173 0 .5912627-.336315 1.242194-.33089.6455069-1.09031 1.4700199l-1.931096 2.066707h3.666913z" fill="url(#a)"/></svg>

<?xml version="1.0" encoding="UTF-8" standalone="no"?>
<svg
   xmlns:dc="http://purl.org/dc/elements/1.1/"
   xmlns:cc="http://creativecommons.org/ns#"
   xmlns:rdf="http://www.w3.org/1999/02/22-rdf-syntax-ns#"
   xmlns:svg="http://www.w3.org/2000/svg"
   xmlns="http://www.w3.org/2000/svg"
   xmlns:xlink="http://www.w3.org/1999/xlink"
   xmlns:sodipodi="http://sodipodi.sourceforge.net/DTD/sodipodi-0.dtd"
   xmlns:inkscape="http://www.inkscape.org/namespaces/inkscape"
   viewBox="0 0 16 16"
   version="1.1"
   id="svg6"
   sodipodi:docname="sc_superscript.svg"
   inkscape:export-filename="/home/rizmut/Documents/Rizmut/Github/libreoffice-style-sukapura/images_sukapura/cmd/sc_superscript.png"
   inkscape:export-xdpi="96"
   inkscape:export-ydpi="96"
   inkscape:version="0.92.3 (2405546, 2018-03-11)">
  <metadata
     id="metadata12">
    <rdf:RDF>
      <cc:Work
         rdf:about="">
        <dc:format>image/svg+xml</dc:format>
        <dc:type
           rdf:resource="http://purl.org/dc/dcmitype/StillImage" />
      </cc:Work>
    </rdf:RDF>
  </metadata>
  <defs
     id="defs10">
    <linearGradient
       gradientTransform="translate(16,-13)"
       id="a"
       gradientUnits="userSpaceOnUse"
       x1="14"
       x2="13.79661"
       y1="22"
       y2="2.1355929">
      <stop
         offset="0"
         stop-color="#0040dd"
         id="stop2206" />
      <stop
         offset="1"
         stop-color="#0a84ff"
         id="stop2208" />
    </linearGradient>
    <linearGradient
       inkscape:collect="always"
       xlink:href="#a"
       id="linearGradient853"
       x1="9.8544054"
       y1="3.9925351"
       x2="15.316804"
       y2="3.9925351"
       gradientUnits="userSpaceOnUse" />
    <linearGradient
       inkscape:collect="always"
       xlink:href="#a"
       id="linearGradient855"
       gradientUnits="userSpaceOnUse"
       x1="11"
       y1="8"
       x2="11"
       y2="0" />
  </defs>
  <sodipodi:namedview
     pagecolor="#ffffff"
     bordercolor="#666666"
     borderopacity="1"
     objecttolerance="10"
     gridtolerance="10"
     guidetolerance="10"
     inkscape:pageopacity="0"
     inkscape:pageshadow="2"
     inkscape:window-width="1366"
     inkscape:window-height="685"
     id="namedview8"
     showgrid="true"
     inkscape:zoom="16"
     inkscape:cx="13.326335"
     inkscape:cy="3.3669832"
     inkscape:window-x="0"
     inkscape:window-y="0"
     inkscape:window-maximized="1"
     inkscape:current-layer="svg6">
    <inkscape:grid
       type="xygrid"
       id="grid822" />
  </sodipodi:namedview>
  <g
     aria-label="x"
     transform="scale(0.95179053,1.0506513)"
     style="font-style:normal;font-weight:normal;font-size:21.30894089px;line-height:1.25;font-family:sans-serif;letter-spacing:0px;word-spacing:0px;fill:#69696e;fill-opacity:1;stroke:none;stroke-width:0.53272349"
     id="text826">
    <path
       d="M 4.1351409,8.4382085 0.19298682,2.855266 H 2.3238809 L 5.2645147,7.1596721 8.1838396,2.855266 H 10.293425 L 6.3512707,8.4382085 10.506514,14.276858 H 8.3756201 L 5.2645147,9.716745 2.1107915,14.276858 H 0.00120635 Z"
       style="fill:#69696e;fill-opacity:1;stroke-width:0.53272349"
       id="path857" />
  </g>
  <g
     aria-label="2"
     style="font-style:normal;font-weight:normal;font-size:11.10922813px;line-height:1.25;font-family:sans-serif;letter-spacing:0px;word-spacing:0px;fill:url(#linearGradient853);fill-opacity:1.0;stroke:none;stroke-width:0.27773073"
     id="text830">
    <path
       d="M 15.316804,7.9957628 H 10.006289 V 7.0898834 l 2.630848,-2.8695223 q 0.569565,-0.6346581 0.80824,-1.0577634 0.244099,-0.4285298 0.244099,-0.8570596 0,-0.5641405 -0.320041,-0.9113039 -0.314617,-0.3471634 -0.851636,-0.3471634 -0.640082,0 -0.99267,0.3905588 -0.352588,0.3905588 -0.352588,1.0686123 H 9.8544053 q 0,-0.7214489 0.3254657,-1.2964383 0.33089,-0.58041373 0.938426,-0.90045497 0.61296,-0.32004124 1.410351,-0.32004124 1.149979,0 1.811759,0.58041378 0.667205,0.57498933 0.667205,1.59478173 0,0.5912627 -0.336315,1.242194 -0.33089,0.6455069 -1.09031,1.4700199 l -1.931096,2.066707 h 3.666913 z"
       style="font-style:normal;font-variant:normal;font-weight:500;font-stretch:normal;font-family:Roboto;-inkscape-font-specification:'Roboto Medium';stroke-width:0.27773073;fill-opacity:1;fill:url(#linearGradient855)"
       id="path832" />
  </g>
</svg>
